src/assets/icons/icons8-close.svg

<svg xmlns="http://www.w3.org/2000/svg" xmlns:xlink="http://www.w3.org/1999/xlink" viewBox="0,0,256,256" width="50px" height="50px"><g fill="#ffffff" fill-rule="nonzero" stroke="none" stroke-width="1" stroke-linecap="butt" stroke-linejoin="miter" stroke-miterlimit="10" stroke-dasharray="" stroke-dashoffset="0" font-family="none" font-weight="none" font-size="none" text-anchor="none" style="mix-blend-mode: normal"><g transform="scale(5.12,5.12)"><path d="M7.71875,6.28125l-1.4375,1.4375l17.28125,17.28125l-17.28125,17.28125l1.4375,1.4375l17.28125,-17.28125l17.28125,17.28125l1.4375,-1.4375l-17.28125,-17.28125l17.28125,-17.28125l-1.4375,-1.4375l-17.28125,17.28125z"></path></g></g></svg>

<svg xmlns="http://www.w3.org/2000/svg"  viewBox="0 0 50 50" width="50px" height="50px"><path d="M 7.71875 6.28125 L 6.28125 7.71875 L 23.5625 25 L 6.28125 42.28125 L 7.71875 43.71875 L 25 26.4375 L 42.28125 43.71875 L 43.71875 42.28125 L 26.4375 25 L 43.71875 7.71875 L 42.28125 6.28125 L 25 23.5625 Z"/></svg>
